X:21143 
T:NELL KENNEDY 
B:DMI.0363
Z:Nordberg/Black
R:jig
%Q:1/4=160
M:6/8
L:1/8
K:G
A|B2G A2F|GFD FGA|BAG A2F|G2g fdc|
B2G A2F|GFD FGA|BAG FDF|G3 G2:|
A|Bde fdf|gag fdc|Bde fdf|g2f g2a]|
[1 Bde fdf|gag fdc|BAG FDF|G3 G2:|
[2 bag gag|fdB cde|fed cAF|G3 HG3|]

%%%

